X:1
T:Title
%%score 1 { ( 2 4 ) | 3 }
L:1/8
Q:1/4=105
M:4/4
K:Eb
V:1 treble nm="Grand Piano, Staff 1"
V:2 bass nm="Choir Pad, Riseholme, 88.84"
V:4 bass 
V:3 bass 
V:1
 [CE]2 [CE]2 [A,F]2 [CA]2- | [CA][CA] [CA]2 [DB]2 [EB]2 | [EA]2 [FB]2 [F_d]2 [Ed]2 | %3
w: By~Henry~John~Gauntlett,~1871 * * *|||
 [Ec]2 [EB]2- [EB][EB] [Ec]2 | [=Ec]2 [Ec]2 [EG]2 [CA]2 | [FA]2 [FB]2 F2 [EG]2 | %6
w: |||
 [EA]2 [FA]4 [_DF]2- | [DF]2 [EA]6- | [EA]2 z2 z4 |] %9
w: |||
V:2
 A,2 A,2 F,2 E,2- | E,A, A,2 A,2 G,2 | A,2 A,2 A,2 G,2 | A,2 A,2 z E, A,2 | G,2 G,2 C2 A,2 | %5
 C2 B,2 B,2 B,2 | A,2 A,4 A,2- | A,2[K:treble] C6- | C2 z2 z4 |] %9
V:3
 A,,2 A,,2 _D,2 A,,2- | A,,F, F,2 F,2 E,2 | C,2 _D,2 B,,2 E,2 | z2 .F,4 A,,2 | C,2 C,2 C,2 F,2 | %5
 E,2 D,2 D,2 E,2 | C,2 _D,4 D,2- | D,2 A,,6- | A,,2 z2 z4 |] %9
V:4
 x8 | x8 | x8 | z4 G,2 z2 | x8 | x8 | x8 | x2[K:treble] x6 | x8 |] %9

